X:23
T:Heatons Hornpipe
S:John Moore's Book 2
Z:Transcribed by Taz Tarry 04/2021
%%VWML: Moore1-4494-p23-0
F:http://www.vwml.org/record/Moore2/4494/p23
M:C|
L:1/8
K:G
dc|Bdga g2 dc|Bdga g2 dc|Bdag fedc|Bdac fedc|
Bdag g2 dc|Bdga g2 dc|Bdeg fgaf|g2b2 g2:|
ga|b2 bg a2 ag|gfge d2 cB|cdec BcdB|A2 a2 a2 fa|
b2 bg a2 ag|gfge d2 d2|efge fgaf|g2 b2 g2:|

